X: 21140
T: Kate And Rose's
R: reel
M: 4/4
K: Ddorian
E|:FD (3DDD ADFA|~d3c dcAG|FD (3DDD AD (3DDD|EDCD (3EFG cG|
FD (3DDD ADFA|~d3c dcAG|F2 cF dFcF|1 D~E3 EDCE:|2 D~E3 E2 eg||
K:D mix
|:fd (3ddd fdad|e~f3 fede|fd (3ddd fdad|cBAd cBAe|
fd (3ddd fdad|e~f3 fedB|c2 gc acgc|1 A~B3 BAGe:|2 A~B3 BAGE||

